X:25
T:Birds In The Berries
R:jig
C:Bruce Osborne - July 2002
Z:abc by bosborne@kos.net
M:6/8
L:1/8
K:Cmaj
e|gec gec|GAG EDC|B,DD BAG|cBc cef|\
gec gec|GAG EDC|B,DG BdB|ced c2:|
|:e|gec cBc|EFA G2 c|BAB DEF|AG^F G2 c|\
gec cBc|EFA G2 c|BAB GAB|dcB c2:|
